X:6003
T:Father Kelly's Reel
T:Rossmore Jetty, The
R:Reel
C:P J Kelly
O:Ireland
Z:Paul Hardy's Session Tunebook 2015 (see www.paulhardy.net). Creative Commons cc by-nc-sa licenced.
M:4/4
L:1/8
Q:1/8=240
K:G
GA|"G"B2GB "Em"AGEG|"G"DGGF G2AB|"Am"c2AB cBAG|EAAG "D"FDGA|
"G"B2GB "Em"AGEG|"G"DGGF GABc|d2Bd gdBd|"D"cAFA "G"G2:|
|:Bc|"G"d2Bd gdBd|d2Bd gdBd|"C"e2ce "D"agfe|"G"defg "D"agfe|
"G"d2Bd gdBd|d2Bd gdBd|"Am"c2Ac "G"BAGB|"D"AGFA "G"G2:|

